svgs/sharp-solid/cloud-binary.svg

<svg xmlns="http://www.w3.org/2000/svg" viewBox="0 0 640 512"><!--! Font Awesome Pro 6.6.0 by @fontawesome - https://fontawesome.com License - https://fontawesome.com/license (Commercial License) Copyright 2024 Fonticons, Inc. --><path d="M0 480l144 0 368 0 128 0 0-128c0-59.6-40.8-109.8-96-124l0-36c0-53-43-96-96-96c-19.7 0-38.1 6-53.3 16.2C367 64.2 315.3 32 256 32C167.6 32 96 103.6 96 192l0 8.2C40.1 220 0 273.3 0 336L0 480zM288 160l16 0 16 0 16 0 0 16 0 80 0 16-32 0 0-16 0-64-16 0 0-32zm-112 0l64 0 16 0 0 16 0 80 0 16-16 0-64 0-16 0 0-16 0-80 0-16 16 0zm16 80l32 0 0-48-32 0 0 48zm192-80l16 0 64 0 16 0 0 16 0 80 0 16-16 0-64 0-16 0 0-16 0-80 0-16zm32 32l0 48 32 0 0-48-32 0zM192 304l16 0 16 0 0 16 0 80 0 16-32 0 0-16 0-64-16 0 0-32 16 0zm80 0l16 0 64 0 16 0 0 16 0 80 0 16-16 0-64 0-16 0 0-16 0-80 0-16zm32 32l0 48 32 0 0-48-32 0zm112-32l16 0 16 0 0 16 0 80 0 16-32 0 0-16 0-64-16 0 0-32 16 0z"/></svg>

<svg xmlns="http://www.w3.org/2000/svg" viewBox="0 0 640 512"><!--! Font Awesome Pro 6.4.2 by @fontawesome - https://fontawesome.com License - https://fontawesome.com/license (Commercial License) Copyright 2023 Fonticons, Inc. --><path d="M0 480H144 512 640V352c0-59.6-40.8-109.8-96-124V192c0-53-43-96-96-96c-19.7 0-38.1 6-53.3 16.2C367 64.2 315.3 32 256 32C167.6 32 96 103.6 96 192v8.2C40.1 220 0 273.3 0 336V480zM288 160h16 16 16v16 80 16H304V256 192H288V160zm-112 0h64 16v16 80 16H240 176 160V256 176 160h16zm16 80h32V192H192v48zm192-80h16 64 16v16 80 16H464 400 384V256 176 160zm32 32v48h32V192H416zM192 304h16 16v16 80 16H192V400 336H176V304h16zm80 0h16 64 16v16 80 16H352 288 272V400 320 304zm32 32v48h32V336H304zm112-32h16 16v16 80 16H416V400 336H400V304h16z"/></svg>
